X: 3624
T:Off She Goes
R:Jig
M:6/8
L:1/8
K:D
F2A G2B|ABc d3|F2A G2B|AFD E3|!
F2A G2B|ABc d2e|f2d g2f|1 edc d3:|2 edc d2e||!
faf d2f|gbg e2g|faf d2f|ecA A2e|!
faf d2f|gbg e2g|fed g2f|1 edc d2e:|2 edc d3||!
